X: 17274
T: Here's To The Maiden Of Bashful Fifteen
R: jig
M: 6/8
K: Dmajor
D>ED d>cd|B>AB A3|D>ED d>cd|B3 A3|
D>ED d>cd|B>AB A2 G|F>GA AGF|E3 D3:|
|:F>GA A3|A>GF E2 D|F>GA A>BA|G>FE D3|F>GA A3|
A>GF E2 D|F>GA B>cd|F>GE D3:|

